X:274
T: IN ALLEN GUTEN STUNDEN
N: B0324
O: Europa, Mitteleuropa, Deutschland
R: Trink -, Geselligkeits - Lied, Freundschaft
M: 4/4
L: 1/8
K: Eb
B,2 | E2G2B2B2 | B4G2
B2 | e2B2G2E2 | B4z2
B,2 | E2G2B2B2 | B4G2
B2 | e2B2G2E2 | B4z2
B2 | B2B2c2G2 | B4A2
F2 | G2B2e2c=A | B4z2
d2 | G2E2e2e2 | e4c2
B2 | B2GEB,2CD | E4z2
B2 | B2B2c2G2 | B4A2
F2 | G2B2e2c=A | B4z2
d2 | G2E2e2e2 | e4c2
B2 | B2GEB,2CD | E4z2

@@@ Tune index: 2077
